X:6
T:Hughie the Graeme
Z:Jack Campin, http://www.campin.me.uk/
S:Northumbrian Minstrelsy
M:3/4
L:1/8
K:F# Minor
z2   | C F  F2  G F |E     F G2 \
G  B |(A`G) F2 (F`G)|c     B e3
   e | f d  e3    c |B/ B/ G F2 \
(G`B)| c f  e3    c |B     G F3|]

